X:1
T:Title
%%score { ( 1 3 ) | ( 2 4 ) }
L:1/8
M:6/8
K:Ab
V:1 treble nm="Grand Piano"
V:3 treble 
V:2 bass 
V:4 bass 
V:1
 z3 z2[Q:1/4=90] [CE] | [Ec][DB][CA] [CE][_C=D][=CE] | FGA [CE]2 [CE] | %3
 [CA][CA][CA] [=DA][DG][DA] |[M:5/8] B-B- B3 |[M:1/8] E |[M:3/4] [Ec][DB] [CA][CE] [_C=D][=CE] | %7
 FG A [A,CE]2 [CDF] | [B,EG][=A,E_G] [B,E=G]A GA | B6 | e3 c3 | B3 .A3 | AG AB AF | E6[K:bass] | %14
 e3 c3 | B3 .A3 | FG A[=DAc] [EGB][DFA] | e6 | e3 c3 | [GB]3 A3 | [FA][FG] [FA][FB] [FA][FB] | %21
 [=Ec]6 | [Ed][Ed] [Ed][Ec] [Ec][Ec] |[M:7/8] B2 z z z z2 |[M:3/4] [EAc]3 [DGB]3 | %25
[M:5/8] A-A- A3 |] %26
V:2
 z3 z2 [A,,A,] | [A,,A,][A,,A,][A,,A,] [A,,A,][A,,A,][A,,A,] | %2
 [D,A,D][D,G,D][D,F,D] [A,,A,]2 [A,,A,] | [A,,E,][A,,E,][A,,A,] [B,,F,][B,,B,][B,,A,] | %4
[M:5/8] [E,G,E]-[E,G,E]- [E,G,E]3 |[M:1/8] [E,G,] | %6
[M:3/4] [A,,A,][A,,A,] [A,,A,][A,,A,] [A,,A,][A,,A,] | [D,A,D][D,G,D] [D,F,D] A,,2 A,, | %8
 B,,B,, B,,[F,B,=D] [F,B,D][F,B,D] | [G,B,E]2 [F,A,] .[E,G,]3 | z A .A2 EE | z D .D2 C[A,CF] | %12
 [A,CE][A,B,E] [A,CE][A,DF] [A,DF][K:bass][A,D] | A,4 z2 | z A .A2 EE | z D .D2[K:bass] C[A,CE] | %16
 [A,CE][A,C=E] [F,CF]B,, B,,B,, | z B,[K:treble] C .D3 | [A,CA]3 [A,EA]3 | [E,D]3 [F,C]3 | %20
 [D,D][D,D] [D,D][D,A,] [D,A,][D,F,] | [C,G,]6 | [B,,G,][B,,G,] [B,,G,][A,,A,] [A,,A,][A,,A,] | %23
[M:7/8] [D,B,]2 [C,=A,] [B,,B,]3 B,, |[M:3/4] E,3 E,3 |[M:5/8] z2 D C2 |] %26
V:3
 x6 | x6 | x6 | x6 |[M:5/8] x5 |[M:1/8] x |[M:3/4] x6 | x6 | x6 | z2 =D .E3 | z c .c2 AA | %11
 z G .G2 EA | x6 | z[K:bass] E, C, .A,3 | z c .c2 AA | z G .G2 EG | x6 | [EG]G A .B3 | x6 | x6 | %20
 x6 | x6 | x6 |[M:7/8] F2- [Fc] [Fd]3 [FBd] |[M:3/4] x6 |[M:5/8] [CE]2 F E2 |] %26
V:4
 x6 | x6 | x6 | x6 |[M:5/8] x5 |[M:1/8] x |[M:3/4] x6 | x6 | x6 | x6 | E3 C3 | B,3 .A,3 | %12
 x5[K:bass] x | C3- [A,,C]3 | E3 C3 | B,3[K:bass] .A,3 | x6 | E,6[K:treble] | x6 | x6 | x6 | x6 | %22
 x6 |[M:7/8] x7 |[M:3/4] x6 |[M:5/8] A,,-A,,- A,,3 |] %26

